X:13
T:Roaring Mary
C:Trad.
D:"Cooley", track 9c
M:4/4
R:reel
K:D
|:D~F3 A~F3|defa ~g2fe|d3B AFAB|defd e2Bc|
D~F3 A~F3|defa g2fe|dcdB ABdf|afeg fd d2:|
|:abag fgfe|dedB BAFA|e~g3 b~g3|a~f3 gee2|
D~F3 A~F3|defa ~g2fe|d3B ABdf|afeg fd d2:|
